Origami/32x32/apps/evelauncher.svg

<svg width="32" height="32" version="1" xmlns="http://www.w3.org/2000/svg">
 <rect transform="matrix(0,-1,-1,0,0,0)" x="-31" y="-30" width="28" height="28" rx="1.4" ry="1.4" style="opacity:.2"/>
 <rect transform="matrix(0,-1,-1,0,0,0)" x="-30" y="-30" width="28" height="28" rx="1.4" ry="1.4" style="fill:#4f4f4f"/>
 <path d="m6 7v6h4v-2h16v-4zm0 8v4h20v-4zm0 6v6h20v-4h-16v-2z" style="opacity:.2"/>
 <path d="m6 6v4 2h4v-2h16v-4h-20zm0 8v4h20v-4h-20zm0 6v2 4h20v-4h-16v-2h-4z" style="fill:#ffffff"/>
 <path d="M 3.4003906 2 C 2.6247906 2 2 2.6247906 2 3.4003906 L 2 4.4003906 C 2 3.6247906 2.6247906 3 3.4003906 3 L 28.599609 3 C 29.375209 3 30 3.6247906 30 4.4003906 L 30 3.4003906 C 30 2.6247906 29.375209 2 28.599609 2 L 3.4003906 2 z" style="fill:#ffffff;opacity:.1"/>
</svg>

<svg xmlns="http://www.w3.org/2000/svg" width="32" height="32" version="1">
 <rect width="28" height="28" x="-31" y="-30" rx="1.4" ry="1.4" transform="matrix(0,-1,-1,0,0,0)" style="opacity:0.2"/>
 <rect style="fill:#4f4f4f" width="28" height="28" x="-30" y="-30" rx="1.4" ry="1.4" transform="matrix(0,-1,-1,0,0,0)"/>
 <path d="m 6,7 v 4 2 h 4 V 11 H 26 V 7 Z m 0,8 v 4 h 20 v -4 z m 0,6 v 2 4 H 26 V 23 H 10 v -2 z" style="opacity:0.2"/>
 <path style="fill:#ffffff" d="M 6 6 L 6 10 L 6 12 L 10 12 L 10 10 L 26 10 L 26 6 L 6 6 z M 6 14 L 6 18 L 26 18 L 26 14 L 6 14 z M 6 20 L 6 22 L 6 26 L 26 26 L 26 22 L 10 22 L 10 20 L 6 20 z"/>
 <path style="fill:#ffffff;opacity:0.1" d="M 3.4003906 2 C 2.6247906 2 2 2.6247906 2 3.4003906 L 2 4.4003906 C 2 3.6247906 2.6247906 3 3.4003906 3 L 28.599609 3 C 29.375209 3 30 3.6247906 30 4.4003906 L 30 3.4003906 C 30 2.6247906 29.375209 2 28.599609 2 L 3.4003906 2 z"/>
</svg>
